X: 1
T: Kerryman's Daughter, The
M: 4/4
L: 1/8
R: reel
K: Cmaj
cA|G~E3 GAcd|egdB cAAc|G~E3 GAcd|egdB c2 cA|
|G~E3 GAcd egdB cAAc|G~E3 GAcd|egdB c3 d|
|e~g3 e~a3|gedB cAAc|e~g3 e~a3|gabg a2 ag|
|e~g3 e~a3|gedB cAAc|G~E3 GAcd|egdB c2 cA|
